assets/src/edit-story/icons/remove.svg

<svg fill="none" height="18" viewBox="0 0 18 18" width="18" xmlns="http://www.w3.org/2000/svg"><path d="m9.00042 1.28516c-4.25829 0-7.71429 3.456-7.71429 7.71428 0 4.25826 3.456 7.71426 7.71429 7.71426 4.25828 0 7.71428-3.456 7.71428-7.71426 0-4.25828-3.456-7.71428-7.71428-7.71428z" fill="#000"/><path d="m12.3427 6.87868-2.1213 2.12132 2.1213 2.1213-1.0607 1.0607-2.12128-2.1213-2.12132 2.1213-1.06066-1.0607 2.12132-2.1213-2.12132-2.12132 1.06066-1.06066 2.12132 2.12132 2.12128-2.12132z" fill="#fff"/></svg>

<svg width="18" height="18" viewBox="0 0 18 18" fill="none" xmlns="http://www.w3.org/2000/svg">
<path d="M9.00042 1.28516C4.74213 1.28516 1.28613 4.74116 1.28613 8.99944C1.28613 13.2577 4.74213 16.7137 9.00042 16.7137C13.2587 16.7137 16.7147 13.2577 16.7147 8.99944C16.7147 4.74116 13.2587 1.28516 9.00042 1.28516Z" fill="black"/>
<path d="M12.3427 6.87868L10.2214 9L12.3427 11.1213L11.282 12.182L9.16072 10.0607L7.0394 12.182L5.97874 11.1213L8.10006 9L5.97874 6.87868L7.0394 5.81802L9.16072 7.93934L11.282 5.81802L12.3427 6.87868Z" fill="white"/>
</svg>
